X:1
T:Title
%%score { ( 1 3 ) | ( 2 4 ) }
L:1/8
M:6/8
K:G
V:1 treble nm="Grand Piano"
V:3 treble 
V:2 bass 
V:4 bass 
V:1
 z3 z2[Q:1/4=90] [B,D] | [B,D]2 [CE] [B,D]2 [DG] | [DB]2 [CA] [B,G]2 [B,F] | %3
 [CE]2 [DF] [CE]2 [EA] | [Ec]2 [EB] A2- [DA] | [Dd]2 [DB] [Dd]2 [DB] | z3 .[EG]3 | D2 G B2 A | %8
[M:5/8] [G,B,G]-[G,B,G]- [G,B,G]3 |[M:1/8] [B,GB] |[M:3/4] [B,GB]2 [B,GB] [B,GB]2 [EAc] | %11
 [B,GB]2 [B,FA] [B,EG]2 [B,GB] | [Gd]2 [Gd] [Gd]2 [Ge] | [Gd]2 [Fc] B2 [DB] | %14
 [Gd]2 [DB] [Gd]2 [DB] | z2 z .[EG]3 | D2 G B2 A |[M:5/8] [B,G]-[B,G]- [B,G]3 |] %18
V:2
 z3 z2 [G,,G,] | [G,,G,]2 [G,,G,] [G,,G,]2 [B,,G,] | [D,G,]2 [D,F,] [G,,G,]2 [G,,G,] | %3
 [C,G,]2 [C,G,] [C,G,]2 [C,G,] | z3 F,3 | [B,,G,]2 [G,,G,] [B,,G,]2 [G,,G,] | C,2 C, z2 C | %7
 [D,G,B,]2 [D,G,B,] [D,G,D]2 [D,F,C] |[M:5/8] G,,-G,,- G,,3 |[M:1/8] E, |[M:3/4] E,2 E, E,2 E, | %11
 E,2 E, E,2 E, | [D,B,]2 [D,B,] [D,B,]2 [D,C] | [D,B,]2 [D,A,] [G,G]2 [G,,G,] | %14
 [B,,G,]2 [G,,G,] [B,,G,]2 [G,,G,] | C,2 .C,2 z C | [D,G,B,]2 [D,G,B,] [D,G,D]2 [D,F,C] | %17
[M:5/8] [G,,G,]-[G,,G,]- [G,,G,]3 |] %18
V:3
 x6 | x6 | x6 | x6 | z3 .F3 | x6 | [G,EG]2 [G,CE] G,2- [G,E] | x6 |[M:5/8] x5 |[M:1/8] x | %10
[M:3/4] x6 | x6 | x6 | x6 | x6 | [G,EG]2 [G,CE] G,2- [G,E] | x6 |[M:5/8] x5 |] %18
V:4
 x6 | x6 | x6 | x6 | [A,,A,]2 [A,,G,] D,2 C, | x6 | z3 C,3 | x6 |[M:5/8] x5 |[M:1/8] x | %10
[M:3/4] x6 | x6 | x6 | x6 | x6 | z2 z C,3 | x6 |[M:5/8] x5 |] %18

